_includes/icons/color-calendar.svg

<svg fill="#666" height="50" viewBox="0 0 48 48" width="50" xmlns="http://www.w3.org/2000/svg"><path d="m5 38v-24h38v24c0 2.199219-1.800781 4-4 4h-30c-2.199219 0-4-1.800781-4-4z" fill="#cfd8dc"/><path d="m43 10v6h-38v-6c0-2.199219 1.800781-4 4-4h30c2.199219 0 4 1.800781 4 4z" fill="#f44336"/><path d="m36 10c0 1.65625-1.34375 3-3 3s-3-1.34375-3-3 1.34375-3 3-3 3 1.34375 3 3z" fill="#b71c1c"/><path d="m18 10c0 1.65625-1.34375 3-3 3s-3-1.34375-3-3 1.34375-3 3-3 3 1.34375 3 3z" fill="#b71c1c"/><path d="m33 3c-1.101562 0-2 .898438-2 2v5c0 1.101563.898438 2 2 2 1.101563 0 2-.898437 2-2v-5c0-1.101562-.898437-2-2-2z" fill="#b0bec5"/><path d="m15 3c-1.101562 0-2 .898438-2 2v5c0 1.101563.898438 2 2 2 1.101563 0 2-.898437 2-2v-5c0-1.101562-.898437-2-2-2z" fill="#b0bec5"/><g fill="#90a4ae"><path d="m13 20h4v4h-4z"/><path d="m19 20h4v4h-4z"/><path d="m25 20h4v4h-4z"/><path d="m31 20h4v4h-4z"/><path d="m13 26h4v4h-4z"/><path d="m19 26h4v4h-4z"/><path d="m25 26h4v4h-4z"/><path d="m31 26h4v4h-4z"/><path d="m13 32h4v4h-4z"/><path d="m19 32h4v4h-4z"/><path d="m25 32h4v4h-4z"/><path d="m31 32h4v4h-4z"/></g></svg>

<svg xmlns="http://www.w3.org/2000/svg" viewBox="0 0 48 48" width="50" height="50" fill="#666"><path d="M 5 38 L 5 14 L 43 14 L 43 38 C 43 40.199219 41.199219 42 39 42 L 9 42 C 6.800781 42 5 40.199219 5 38 Z" fill="#cfd8dc"/><path d="M 43 10 L 43 16 L 5 16 L 5 10 C 5 7.800781 6.800781 6 9 6 L 39 6 C 41.199219 6 43 7.800781 43 10 Z" fill="#f44336"/><path d="M 36 10 C 36 11.65625 34.65625 13 33 13 C 31.34375 13 30 11.65625 30 10 C 30 8.34375 31.34375 7 33 7 C 34.65625 7 36 8.34375 36 10 Z" fill="#b71c1c"/><path d="M 18 10 C 18 11.65625 16.65625 13 15 13 C 13.34375 13 12 11.65625 12 10 C 12 8.34375 13.34375 7 15 7 C 16.65625 7 18 8.34375 18 10 Z" fill="#b71c1c"/><path d="M 33 3 C 31.898438 3 31 3.898438 31 5 L 31 10 C 31 11.101563 31.898438 12 33 12 C 34.101563 12 35 11.101563 35 10 L 35 5 C 35 3.898438 34.101563 3 33 3 Z" fill="#b0bec5"/><path d="M 15 3 C 13.898438 3 13 3.898438 13 5 L 13 10 C 13 11.101563 13.898438 12 15 12 C 16.101563 12 17 11.101563 17 10 L 17 5 C 17 3.898438 16.101563 3 15 3 Z" fill="#b0bec5"/><path d="M 13 20 L 17 20 L 17 24 L 13 24 Z" fill="#90a4ae"/><path d="M 19 20 L 23 20 L 23 24 L 19 24 Z" fill="#90a4ae"/><path d="M 25 20 L 29 20 L 29 24 L 25 24 Z" fill="#90a4ae"/><path d="M 31 20 L 35 20 L 35 24 L 31 24 Z" fill="#90a4ae"/><path d="M 13 26 L 17 26 L 17 30 L 13 30 Z" fill="#90a4ae"/><path d="M 19 26 L 23 26 L 23 30 L 19 30 Z" fill="#90a4ae"/><path d="M 25 26 L 29 26 L 29 30 L 25 30 Z" fill="#90a4ae"/><path d="M 31 26 L 35 26 L 35 30 L 31 30 Z" fill="#90a4ae"/><path d="M 13 32 L 17 32 L 17 36 L 13 36 Z" fill="#90a4ae"/><path d="M 19 32 L 23 32 L 23 36 L 19 36 Z" fill="#90a4ae"/><path d="M 25 32 L 29 32 L 29 36 L 25 36 Z" fill="#90a4ae"/><path d="M 31 32 L 35 32 L 35 36 L 31 36 Z" fill="#90a4ae"/></svg>
